SVG_Azure_Grouped/Data/SQL Elastic Pool.svg

<?xml version="1.0" encoding="UTF-8" standalone="no"?>
<!-- Generated by Microsoft Visio, SVG Export SQL Elastic Pool.svg Page-1 -->

<svg
   xmlns:dc="http://purl.org/dc/elements/1.1/"
   xmlns:cc="http://creativecommons.org/ns#"
   xmlns:rdf="http://www.w3.org/1999/02/22-rdf-syntax-ns#"
   xmlns:svg="http://www.w3.org/2000/svg"
   xmlns="http://www.w3.org/2000/svg"
   xmlns:sodipodi="http://sodipodi.sourceforge.net/DTD/sodipodi-0.dtd"
   xmlns:inkscape="http://www.inkscape.org/namespaces/inkscape"
   width="0.76583087in"
   height="0.76583087in"
   viewBox="0 0 55.13993 55.13968"
   xml:space="preserve"
   class="st8"
   version="1.1"
   id="svg113"
   sodipodi:docname="SQL Elastic Pool.svg"
   style="font-size:12px;overflow:visible;color-interpolation-filters:sRGB;fill:none;fill-rule:evenodd;stroke-linecap:square;stroke-miterlimit:3"
   inkscape:version="0.92.5 (2060ec1f9f, 2020-04-08)"><metadata
   id="metadata117"><rdf:RDF><cc:Work
       rdf:about=""><dc:format>image/svg+xml</dc:format><dc:type
         rdf:resource="http://purl.org/dc/dcmitype/StillImage" /></cc:Work></rdf:RDF></metadata><sodipodi:namedview
   pagecolor="#ffffff"
   bordercolor="#666666"
   borderopacity="1"
   objecttolerance="10"
   gridtolerance="10"
   guidetolerance="10"
   inkscape:pageopacity="0"
   inkscape:pageshadow="2"
   inkscape:window-width="640"
   inkscape:window-height="480"
   id="namedview115"
   showgrid="false"
   inkscape:zoom="1.4281758"
   inkscape:cx="36.759111"
   inkscape:cy="36.232106"
   inkscape:window-x="0"
   inkscape:window-y="0"
   inkscape:window-maximized="0"
   inkscape:current-layer="svg113" />
	<style
   type="text/css"
   id="style2">
	<![CDATA[
		.st1 {fill:url(#grad0-6);stroke:none;stroke-linecap:butt;stroke-width:34}
		.st2 {fill:#50e6ff;stroke:none;stroke-linecap:butt;stroke-width:34}
		.st3 {fill:#eaeaea}
		.st4 {stroke:none;stroke-linecap:butt;stroke-width:34}
		.st5 {fill:#50e6ff}
		.st6 {fill:#32bedd;stroke:none;stroke-linecap:butt;stroke-width:34}
		.st7 {fill:#eaeaea;stroke:none;stroke-linecap:butt;stroke-width:34}
		.st8 {fill:none;fill-rule:evenodd;font-size:12px;overflow:visible;stroke-linecap:square;stroke-miterlimit:3}
	]]>
	</style>

	<defs
   id="Patterns_And_Gradients">
		<linearGradient
   id="grad0-6"
   x1="-4.4960634e-08"
   y1="83.86046"
   x2="40.085"
   y2="83.86046"
   gradientTransform="scale(1.0001247,0.99987527)"
   gradientUnits="userSpaceOnUse">
			<stop
   offset="0"
   stop-color="#005ba1"
   stop-opacity="1"
   id="stop4" />
			<stop
   offset="0.1"
   stop-color="#0060a9"
   stop-opacity="1"
   id="stop6" />
			<stop
   offset="0.52"
   stop-color="#0071c8"
   stop-opacity="1"
   id="stop8" />
			<stop
   offset="0.75"
   stop-color="#0078d4"
   stop-opacity="1"
   id="stop10" />
		</linearGradient>
	</defs>
	<g
   id="g111"
   transform="translate(-34.002613,-34.001482)">
		<title
   id="title14">Page-1</title>
		<g
   id="group19004-1"
   transform="translate(33.2256,-34.0157)">
			<title
   id="title16">SQL Elastic Pool.19004</title>
			<g
   id="group19005-2">
				<title
   id="title18">SQL elastic pool</title>
				<g
   id="shape19006-3"
   transform="rotate(-45,14.173223,89.717059)">
					<title
   id="title20">Sheet.19006</title>
					<path
   d="m 0,122.06 a 1.86959,1.86959 -180 0 0 1.87,1.87 h 36.35 a 1.86959,1.86959 -180 0 0 1.87,-1.87 V 85.72 A 1.86959,1.86959 -180 0 0 38.22,83.85 H 1.87 A 1.86959,1.86959 -180 0 0 0,85.72 Z"
   class="st1"
   id="path22"
   inkscape:connector-curvature="0"
   style="fill:url(#grad0-6);stroke:none;stroke-width:34;stroke-linecap:butt" />
				</g>
				<g
   id="shape19007-7"
   transform="translate(23.113,-36.5914)">
					<title
   id="title25">Sheet.19007</title>
					<path
   d="M 5.24,115.05 C 2.33,115.05 0,114.31 0,113.36 v 8.92 c 0,0.89 2.3,1.65 5.15,1.65 h 0.09 c 2.88,0 5.24,-0.73 5.24,-1.65 v -8.92 c 0.03,0.95 -2.17,1.69 -5.24,1.69 z"
   class="st2"
   id="path27"
   inkscape:connector-curvature="0"
   style="fill:#50e6ff;stroke:none;stroke-width:34;stroke-linecap:butt" />
				</g>
				<g
   id="shape19008-9"
   transform="translate(23.1436,-45.4794)">
					<title
   id="title30">Sheet.19008</title>
					<path
   d="m 10.48,122.25 c 0,0.95 -2.36,1.68 -5.24,1.68 -2.88,0 -5.24,-0.73 -5.24,-1.68 0,-0.95 2.33,-1.66 5.21,-1.66 2.88,0 5.24,0.74 5.24,1.66 z"
   class="st3"
   id="path32"
   inkscape:connector-curvature="0"
   style="fill:#eaeaea" />
					<path
   d="m 10.48,122.25 c 0,0.95 -2.36,1.68 -5.24,1.68 -2.88,0 -5.24,-0.73 -5.24,-1.68 0,-0.95 2.33,-1.66 5.21,-1.66 2.88,0 5.24,0.74 5.24,1.66"
   class="st4"
   id="path34"
   inkscape:connector-curvature="0"
   style="stroke:none;stroke-width:34;stroke-linecap:butt" />
				</g>
				<g
   id="shape19009-12"
   transform="translate(24.3696,-46.2149)">
					<title
   id="title37">Sheet.19009</title>
					<path
   d="m 8.03,122.86 c 0,0.58 -1.81,1.07 -4.02,1.07 -2.2,0 -4.01,-0.52 -4.01,-1.07 0,-0.55 1.78,-1.07 3.98,-1.07 2.21,0 4.02,0.49 4.02,1.07 z"
   class="st5"
   id="path39"
   inkscape:connector-curvature="0"
   style="fill:#50e6ff" />
					<path
   d="m 8.03,122.86 c 0,0.58 -1.81,1.07 -4.02,1.07 -2.2,0 -4.01,-0.52 -4.01,-1.07 0,-0.55 1.78,-1.07 3.98,-1.07 2.21,0 4.02,0.49 4.02,1.07"
   class="st4"
   id="path41"
   inkscape:connector-curvature="0"
   style="stroke:none;stroke-width:34;stroke-linecap:butt" />
				</g>
				<g
   id="shape19010-15"
   transform="translate(25.289,-46.3069)">
					<title
   id="title44">Sheet.19010</title>
					<path
   d="M 3.06,123.2 A 10.9414,10.9414 -180 0 0 0,123.51 10.7882,10.7882 -180 0 0 3.06,123.93 10.7882,10.7882 -180 0 0 6.13,123.51 11.0947,11.0947 -180 0 0 3.06,123.2 Z"
   class="st6"
   id="path46"
   inkscape:connector-curvature="0"
   style="fill:#32bedd;stroke:none;stroke-width:34;stroke-linecap:butt" />
				</g>
				<g
   id="shape19011-17"
   transform="translate(23.113,-7.75134)">
					<title
   id="title49">Sheet.19011</title>
					<path
   d="M 5.24,115.05 C 2.33,115.05 0,114.31 0,113.36 v 8.92 c 0,0.89 2.3,1.65 5.15,1.65 h 0.09 c 2.88,0 5.24,-0.73 5.24,-1.65 v -8.92 c 0.03,0.95 -2.17,1.69 -5.24,1.69 z"
   class="st2"
   id="path51"
   inkscape:connector-curvature="0"
   style="fill:#50e6ff;stroke:none;stroke-width:34;stroke-linecap:butt" />
				</g>
				<g
   id="shape19012-19"
   transform="translate(23.1436,-16.6393)">
					<title
   id="title54">Sheet.19012</title>
					<path
   d="m 10.48,122.25 c 0,0.95 -2.36,1.68 -5.24,1.68 -2.88,0 -5.24,-0.73 -5.24,-1.68 0,-0.95 2.33,-1.66 5.24,-1.66 2.91,0 5.24,0.74 5.24,1.66 z"
   class="st7"
   id="path56"
   inkscape:connector-curvature="0"
   style="fill:#eaeaea;stroke:none;stroke-width:34;stroke-linecap:butt" />
				</g>
				<g
   id="shape19013-21"
   transform="translate(24.3696,-17.3749)">
					<title
   id="title59">Sheet.19013</title>
					<path
   d="m 8.03,122.86 c 0,0.58 -1.81,1.07 -4.02,1.07 -2.2,0 -4.01,-0.49 -4.01,-1.07 0,-0.58 1.78,-1.07 4.01,-1.07 2.24,0 4.02,0.49 4.02,1.07 z"
   class="st2"
   id="path61"
   inkscape:connector-curvature="0"
   style="fill:#50e6ff;stroke:none;stroke-width:34;stroke-linecap:butt" />
				</g>
				<g
   id="shape19014-23"
   transform="translate(25.289,-17.3749)">
					<title
   id="title64">Sheet.19014</title>
					<path
   d="m 3.06,123.11 a 10.9414,10.9414 -180 0 0 -3.06,0.4 10.7882,10.7882 -180 0 0 3.06,0.42 10.7882,10.7882 -180 0 0 3.07,-0.42 11.0947,11.0947 -180 0 0 -3.07,-0.4 z"
   class="st6"
   id="path66"
   inkscape:connector-curvature="0"
   style="fill:#32bedd;stroke:none;stroke-width:34;stroke-linecap:butt" />
				</g>
				<g
   id="shape19015-25"
   transform="translate(36.0466,-22.2173)">
					<title
   id="title69">Sheet.19015</title>
					<path
   d="M 5.24,115.02 C 2.18,115.02 0,114.28 0,113.36 v 8.89 c 0,0.92 2.3,1.65 5.18,1.68 2.88,0 5.24,-0.76 5.24,-1.68 v -8.89 c 0.06,0.92 -2.3,1.66 -5.18,1.66 z"
   class="st2"
   id="path71"
   inkscape:connector-curvature="0"
   style="fill:#50e6ff;stroke:none;stroke-width:34;stroke-linecap:butt" />
				</g>
				<g
   id="shape19016-27"
   transform="translate(36.0466,-31.136)">
					<title
   id="title74">Sheet.19016</title>
					<path
   d="m 10.48,122.28 c 0,0.92 -2.36,1.65 -5.24,1.65 -2.88,0 -5.24,-0.73 -5.24,-1.65 0,-0.92 2.33,-1.69 5.24,-1.69 2.91,0 5.24,0.77 5.24,1.69 z"
   class="st7"
   id="path76"
   inkscape:connector-curvature="0"
   style="fill:#eaeaea;stroke:none;stroke-width:34;stroke-linecap:butt" />
				</g>
				<g
   id="shape19017-29"
   transform="translate(37.2725,-31.8715)">
					<title
   id="title79">Sheet.19017</title>
					<path
   d="m 8.03,122.86 c 0,0.61 -1.81,1.07 -4.02,1.07 -2.2,0 -4.01,-0.46 -4.01,-1.07 0,-0.61 1.78,-1.04 4.01,-1.04 2.24,0 4.02,0.46 4.02,1.04 z"
   class="st2"
   id="path81"
   inkscape:connector-curvature="0"
   style="fill:#50e6ff;stroke:none;stroke-width:34;stroke-linecap:butt" />
				</g>
				<g
   id="shape19018-31"
   transform="translate(38.2226,-31.8715)">
					<title
   id="title84">Sheet.19018</title>
					<path
   d="m 3.06,123.11 a 10.7882,10.7882 -180 0 0 -3.06,0.43 10.9414,10.9414 -180 0 0 3.06,0.39 10.9414,10.9414 -180 0 0 3.07,-0.39 10.9414,10.9414 -180 0 0 -3.07,-0.43 z"
   class="st6"
   id="path86"
   inkscape:connector-curvature="0"
   style="fill:#32bedd;stroke:none;stroke-width:34;stroke-linecap:butt" />
				</g>
				<g
   id="shape19019-33"
   transform="translate(10.6085,-22.2173)">
					<title
   id="title89">Sheet.19019</title>
					<path
   d="M 5.24,115.02 C 2.33,115.02 0,114.28 0,113.36 v 8.89 c 0,0.92 2.3,1.65 5.15,1.68 2.88,0 5.24,-0.76 5.24,-1.68 v -8.89 c 0.09,0.92 -2.27,1.66 -5.15,1.66 z"
   class="st2"
   id="path91"
   inkscape:connector-curvature="0"
   style="fill:#50e6ff;stroke:none;stroke-width:34;stroke-linecap:butt" />
				</g>
				<g
   id="shape19020-35"
   transform="translate(10.6085,-31.136)">
					<title
   id="title94">Sheet.19020</title>
					<path
   d="m 10.48,122.28 c 0,0.92 -2.36,1.65 -5.24,1.65 -2.88,0 -5.24,-0.73 -5.24,-1.65 0,-0.92 2.42,-1.69 5.24,-1.69 2.82,0 5.24,0.77 5.24,1.69 z"
   class="st7"
   id="path96"
   inkscape:connector-curvature="0"
   style="fill:#eaeaea;stroke:none;stroke-width:34;stroke-linecap:butt" />
				</g>
				<g
   id="shape19021-37"
   transform="translate(11.8344,-31.8715)">
					<title
   id="title99">Sheet.19021</title>
					<path
   d="m 8.03,122.86 c 0,0.61 -1.81,1.07 -4.02,1.07 -2.2,0 -4.01,-0.46 -4.01,-1.07 0,-0.61 1.78,-1.04 4.01,-1.04 2.24,0 4.02,0.46 4.02,1.04 z"
   class="st2"
   id="path101"
   inkscape:connector-curvature="0"
   style="fill:#50e6ff;stroke:none;stroke-width:34;stroke-linecap:butt" />
				</g>
				<g
   id="shape19022-39"
   transform="translate(12.7845,-31.8715)">
					<title
   id="title104">Sheet.19022</title>
					<path
   d="m 3.06,123.11 a 10.7882,10.7882 -180 0 0 -3.06,0.43 10.9414,10.9414 -180 0 0 3.06,0.39 10.9414,10.9414 -180 0 0 3.07,-0.39 10.9414,10.9414 -180 0 0 -3.07,-0.43 z"
   class="st6"
   id="path106"
   inkscape:connector-curvature="0"
   style="fill:#32bedd;stroke:none;stroke-width:34;stroke-linecap:butt" />
				</g>
			</g>
		</g>
	</g>
</svg>

<?xml version="1.0" encoding="UTF-8" standalone="no"?>
<!DOCTYPE svg PUBLIC "-//W3C//DTD SVG 1.1//EN" "http://www.w3.org/Graphics/SVG/1.1/DTD/svg11.dtd">
<!-- Generated by Microsoft Visio, SVG Export SQL Elastic Pool.svg Page-1 -->
<svg xmlns="http://www.w3.org/2000/svg" xmlns:xlink="http://www.w3.org/1999/xlink" xmlns:ev="http://www.w3.org/2001/xml-events"
		width="1.71033in" height="1.72131in" viewBox="0 0 123.144 123.934" xml:space="preserve" color-interpolation-filters="sRGB"
		class="st8">
	<style type="text/css">
	<![CDATA[
		.st1 {fill:url(#grad0-6);stroke:none;stroke-linecap:butt;stroke-width:34}
		.st2 {fill:#50e6ff;stroke:none;stroke-linecap:butt;stroke-width:34}
		.st3 {fill:#eaeaea}
		.st4 {stroke:none;stroke-linecap:butt;stroke-width:34}
		.st5 {fill:#50e6ff}
		.st6 {fill:#32bedd;stroke:none;stroke-linecap:butt;stroke-width:34}
		.st7 {fill:#eaeaea;stroke:none;stroke-linecap:butt;stroke-width:34}
		.st8 {fill:none;fill-rule:evenodd;font-size:12px;overflow:visible;stroke-linecap:square;stroke-miterlimit:3}
	]]>
	</style>

	<defs id="Patterns_And_Gradients">
		<linearGradient id="grad0-6" x1="0" y1="0" x2="1" y2="0" gradientTransform="rotate(-45 0.5 0.5)">
			<stop offset="0" stop-color="#005ba1" stop-opacity="1"/>
			<stop offset="0.1" stop-color="#0060a9" stop-opacity="1"/>
			<stop offset="0.52" stop-color="#0071c8" stop-opacity="1"/>
			<stop offset="0.75" stop-color="#0078d4" stop-opacity="1"/>
		</linearGradient>
	</defs>
	<g>
		<title>Page-1</title>
		<g id="group18568-1" transform="translate(33.2256,-34.0157)">
			<title>SQL Elastic Pool.18568</title>
			<g id="group18569-2">
				<title>SQL elastic pool</title>
				<g id="shape18570-3" transform="translate(-59.2883,36.2995) rotate(-45)">
					<title>Sheet.18570</title>
					<path d="M0 122.06 A1.86959 1.86959 -180 0 0 1.87 123.93 L38.22 123.93 A1.86959 1.86959 -180 0 0 40.09 122.06
								 L40.09 85.72 A1.86959 1.86959 -180 0 0 38.22 83.85 L1.87 83.85 A1.86959 1.86959 -180 0 0 -0 85.72
								 L0 122.06 Z" class="st1"/>
				</g>
				<g id="shape18571-7" transform="translate(23.113,-36.5914)">
					<title>Sheet.18571</title>
					<path d="M5.24 115.05 C2.33 115.05 0 114.31 0 113.36 L0 122.28 C0 123.17 2.3 123.93 5.15 123.93 L5.24 123.93
								 C8.12 123.93 10.48 123.2 10.48 122.28 L10.48 113.36 C10.51 114.31 8.31 115.05 5.24 115.05 Z"
							class="st2"/>
				</g>
				<g id="shape18572-9" transform="translate(23.1436,-45.4794)">
					<title>Sheet.18572</title>
					<path d="M10.48 122.25 C10.48 123.2 8.12 123.93 5.24 123.93 C2.36 123.93 0 123.2 0 122.25 C0 121.3 2.33 120.59
								 5.21 120.59 C8.09 120.59 10.45 121.33 10.45 122.25 L10.48 122.25 Z" class="st3"/>
					<path d="M10.48 122.25 C10.48 123.2 8.12 123.93 5.24 123.93 C2.36 123.93 0 123.2 0 122.25 C0 121.3 2.33 120.59
								 5.21 120.59 C8.09 120.59 10.45 121.33 10.45 122.25" class="st4"/>
				</g>
				<g id="shape18573-12" transform="translate(24.3696,-46.2149)">
					<title>Sheet.18573</title>
					<path d="M8.03 122.86 C8.03 123.44 6.22 123.93 4.01 123.93 C1.81 123.93 0 123.41 0 122.86 C0 122.31 1.78 121.79
								 3.98 121.79 C6.19 121.79 8 122.28 8 122.86 L8.03 122.86 Z" class="st5"/>
					<path d="M8.03 122.86 C8.03 123.44 6.22 123.93 4.01 123.93 C1.81 123.93 0 123.41 0 122.86 C0 122.31 1.78 121.79
								 3.98 121.79 C6.19 121.79 8 122.28 8 122.86" class="st4"/>
				</g>
				<g id="shape18574-15" transform="translate(25.289,-46.3069)">
					<title>Sheet.18574</title>
					<path d="M3.06 123.2 A10.9414 10.9414 -180 0 0 -0 123.51 A10.7882 10.7882 -180 0 0 3.06 123.93 A10.7882 10.7882
								 -180 0 0 6.13 123.51 A11.0947 11.0947 -180 0 0 3.06 123.2 Z" class="st6"/>
				</g>
				<g id="shape18575-17" transform="translate(23.113,-7.75134)">
					<title>Sheet.18575</title>
					<path d="M5.24 115.05 C2.33 115.05 0 114.31 0 113.36 L0 122.28 C0 123.17 2.3 123.93 5.15 123.93 L5.24 123.93
								 C8.12 123.93 10.48 123.2 10.48 122.28 L10.48 113.36 C10.51 114.31 8.31 115.05 5.24 115.05 Z"
							class="st2"/>
				</g>
				<g id="shape18576-19" transform="translate(23.1436,-16.6393)">
					<title>Sheet.18576</title>
					<path d="M10.48 122.25 C10.48 123.2 8.12 123.93 5.24 123.93 C2.36 123.93 0 123.2 0 122.25 C0 121.3 2.33 120.59
								 5.24 120.59 C8.15 120.59 10.48 121.33 10.48 122.25 Z" class="st7"/>
				</g>
				<g id="shape18577-21" transform="translate(24.3696,-17.3749)">
					<title>Sheet.18577</title>
					<path d="M8.03 122.86 C8.03 123.44 6.22 123.93 4.01 123.93 C1.81 123.93 0 123.44 0 122.86 C0 122.28 1.78 121.79
								 4.01 121.79 C6.25 121.79 8.03 122.28 8.03 122.86 Z" class="st2"/>
				</g>
				<g id="shape18578-23" transform="translate(25.289,-17.3749)">
					<title>Sheet.18578</title>
					<path d="M3.06 123.11 A10.9414 10.9414 -180 0 0 0 123.51 A10.7882 10.7882 -180 0 0 3.06 123.93 A10.7882 10.7882
								 -180 0 0 6.13 123.51 A11.0947 11.0947 -180 0 0 3.06 123.11 Z" class="st6"/>
				</g>
				<g id="shape18579-25" transform="translate(36.0466,-22.2173)">
					<title>Sheet.18579</title>
					<path d="M5.24 115.02 C2.18 115.02 0 114.28 0 113.36 L0 122.25 C0 123.17 2.3 123.9 5.18 123.93 C8.06 123.93 10.42
								 123.17 10.42 122.25 L10.42 113.36 C10.48 114.28 8.12 115.02 5.24 115.02 Z" class="st2"/>
				</g>
				<g id="shape18580-27" transform="translate(36.0466,-31.136)">
					<title>Sheet.18580</title>
					<path d="M10.48 122.28 C10.48 123.2 8.12 123.93 5.24 123.93 C2.36 123.93 0 123.2 0 122.28 C0 121.36 2.33 120.59
								 5.24 120.59 C8.15 120.59 10.48 121.36 10.48 122.28 Z" class="st7"/>
				</g>
				<g id="shape18581-29" transform="translate(37.2725,-31.8715)">
					<title>Sheet.18581</title>
					<path d="M8.03 122.86 C8.03 123.47 6.22 123.93 4.01 123.93 C1.81 123.93 0 123.47 0 122.86 C0 122.25 1.78 121.82
								 4.01 121.82 C6.25 121.82 8.03 122.28 8.03 122.86 Z" class="st2"/>
				</g>
				<g id="shape18582-31" transform="translate(38.2226,-31.8715)">
					<title>Sheet.18582</title>
					<path d="M3.06 123.11 A10.7882 10.7882 -180 0 0 0 123.54 A10.9414 10.9414 -180 0 0 3.06 123.93 A10.9414 10.9414
								 -180 0 0 6.13 123.54 A10.9414 10.9414 -180 0 0 3.06 123.11 Z" class="st6"/>
				</g>
				<g id="shape18583-33" transform="translate(10.6085,-22.2173)">
					<title>Sheet.18583</title>
					<path d="M5.24 115.02 C2.33 115.02 0 114.28 0 113.36 L0 122.25 C0 123.17 2.3 123.9 5.15 123.93 C8.03 123.93 10.39
								 123.17 10.39 122.25 L10.39 113.36 C10.48 114.28 8.12 115.02 5.24 115.02 Z" class="st2"/>
				</g>
				<g id="shape18584-35" transform="translate(10.6085,-31.136)">
					<title>Sheet.18584</title>
					<path d="M10.48 122.28 C10.48 123.2 8.12 123.93 5.24 123.93 C2.36 123.93 0 123.2 0 122.28 C0 121.36 2.42 120.59
								 5.24 120.59 C8.06 120.59 10.48 121.36 10.48 122.28 Z" class="st7"/>
				</g>
				<g id="shape18585-37" transform="translate(11.8344,-31.8715)">
					<title>Sheet.18585</title>
					<path d="M8.03 122.86 C8.03 123.47 6.22 123.93 4.01 123.93 C1.81 123.93 0 123.47 0 122.86 C0 122.25 1.78 121.82
								 4.01 121.82 C6.25 121.82 8.03 122.28 8.03 122.86 Z" class="st2"/>
				</g>
				<g id="shape18586-39" transform="translate(12.7845,-31.8715)">
					<title>Sheet.18586</title>
					<path d="M3.06 123.11 A10.7882 10.7882 -180 0 0 0 123.54 A10.9414 10.9414 -180 0 0 3.06 123.93 A10.9414 10.9414
								 -180 0 0 6.13 123.54 A10.9414 10.9414 -180 0 0 3.06 123.11 Z" class="st6"/>
				</g>
			</g>
		</g>
	</g>
</svg>
